X: 10703
Q: "Very slow and soft."
U: p=!crescendo(!
U: P=!crescendo)!
U: Q=!diminuendo(!
U: q=!diminuendo)!
M: 3/4
L: 1/16
K: Eb
(G3F) |\
d4 g4 {d}bd3 | {d}c4 (B2G2) {d}e3g | {e}d4 c4 p(dc=Bc) | {^F}PG8 :|
|: !p!(EFGB) |\
"^cres."{G}e8 (fe)(dc) | d4 c4 (3(c2d2f2) | g8 (gf)(ed) | {d}"_>"e4 G4 Q(fe)(dcq) |\
d4 pg4 {d}b3Pd | {d}c4 B2G2 {d}He3Qg | {e}d4q c4 p(dc=Bc) | {^F}PG8 :|


